picto/tracks-16-de-small-framed.svg

<svg class="color-immutable" width="30" height="30" viewBox="0 0 30 30" fill="none" xmlns="http://www.w3.org/2000/svg"><path d="M30 0H0V30H30V0Z" fill="#2D327D"/><path d="M25.5 3C26.325 3 27 3.675 27 4.5V25.5C27 26.325 26.325 27 25.5 27H4.5C3.675 27 3 26.325 3 25.5V4.5C3 3.675 3.675 3 4.5 3H25.5ZM25.5 2.625H4.5C3.46613 2.625 2.625 3.46613 2.625 4.5V25.5C2.625 26.5339 3.46613 27.375 4.5 27.375H25.5C26.5339 27.375 27.375 26.5339 27.375 25.5V4.5C27.375 3.46613 26.5339 2.625 25.5 2.625Z" fill="white"/><path d="M12.3522 12.7585V24.0019H10.1066V16.6421H9.30681H8.50701H7.73023H7.46106V15.0118C8.00961 14.9964 8.45698 14.94 8.80303 14.8426C9.14908 14.7452 9.46558 14.5863 9.75283 14.3658C10.1681 14.048 10.4475 13.5122 10.5911 12.7585H12.3522Z" fill="white"/><path d="M23.2341 15.5654H21.0962C20.8962 14.699 20.404 14.2658 19.6196 14.2658C18.789 14.2658 18.1993 14.776 17.8508 15.7961C17.7072 16.2114 17.5918 16.8395 17.5047 17.6803C17.8431 17.2241 18.2032 16.8959 18.5852 16.6959C18.9671 16.496 19.4274 16.396 19.9656 16.396C21.0217 16.396 21.8703 16.7703 22.5111 17.5188C23.1212 18.2264 23.4263 19.1134 23.4263 20.1797C23.4263 21.4462 23.016 22.4638 22.1958 23.2328C21.4575 23.925 20.5705 24.2711 19.5349 24.2711C18.207 24.2711 17.174 23.77 16.4357 22.7676C15.6974 21.7653 15.3282 20.3669 15.3282 18.5724C15.3282 16.655 15.723 15.1528 16.5126 14.0658C17.2764 13.0148 18.3198 12.4892 19.6425 12.4892C20.8884 12.4892 21.842 12.9071 22.5034 13.7428C22.8828 14.2248 23.1264 14.8323 23.2341 15.5654ZM19.4274 18.1418C18.889 18.1418 18.4608 18.3674 18.1431 18.8185C17.8559 19.2184 17.7124 19.6952 17.7124 20.2489C17.7124 20.7975 17.8585 21.2769 18.1508 21.687C18.4686 22.1434 18.9045 22.3715 19.4582 22.3715C19.9965 22.3715 20.4297 22.1537 20.7579 21.7178C21.0655 21.3077 21.2193 20.8232 21.2193 20.2643C21.2193 19.7158 21.0808 19.2467 20.804 18.8569C20.4656 18.3802 20.0067 18.1418 19.4274 18.1418Z" fill="white"/><path d="M8.0955 7.03665V8.24865H7.7817L7.7325 7.99178C7.56637 8.19893 7.34235 8.3025 7.06035 8.3025C6.71685 8.3025 6.44565 8.17538 6.24667 7.92105C6.0816 7.7088 5.99902 7.44683 5.99902 7.13513C5.99902 6.78135 6.10672 6.4917 6.32205 6.2661C6.52402 6.0528 6.78502 5.94615 7.1049 5.94615C7.40025 5.94615 7.6407 6.04148 7.82625 6.2322C7.9647 6.37575 8.04412 6.54495 8.06467 6.7398H7.5894C7.5648 6.61883 7.50967 6.52448 7.42402 6.45683C7.33837 6.38918 7.23 6.35528 7.09875 6.35528C6.89985 6.35528 6.74602 6.43215 6.63735 6.58598C6.54202 6.7203 6.49432 6.9018 6.49432 7.13048C6.49432 7.35398 6.53895 7.53143 6.62812 7.66268C6.73785 7.82363 6.89985 7.90418 7.11412 7.90418C7.26892 7.90418 7.39582 7.85753 7.49482 7.76423C7.59382 7.67093 7.6458 7.54838 7.65097 7.39665H7.1511V7.03673H8.0955V7.03665Z" fill="white"/><path d="M8.90306 6V8.24865H8.45703V6H8.90306Z" fill="white"/><path d="M10.7749 7.72575C10.7513 7.8201 10.7087 7.90875 10.6472 7.99185C10.4995 8.19383 10.2873 8.29485 10.0105 8.29485C9.76026 8.29485 9.55978 8.21588 9.40903 8.058C9.33523 7.98113 9.27883 7.88828 9.23983 7.7796C9.19776 7.66373 9.17676 7.54275 9.17676 7.4166C9.17676 7.17255 9.24703 6.9675 9.38751 6.80138C9.54441 6.61575 9.74743 6.52298 9.99658 6.52298C10.1976 6.52298 10.3688 6.585 10.5103 6.70905C10.6119 6.79823 10.6857 6.90825 10.7318 7.03898C10.7779 7.1697 10.801 7.33403 10.801 7.53196H9.63058C9.63471 7.614 9.64753 7.68218 9.66906 7.73655C9.72958 7.88318 9.84441 7.95653 10.0136 7.95653C10.0966 7.95653 10.1644 7.9383 10.2166 7.90193C10.2689 7.86555 10.312 7.80683 10.3459 7.72583H10.7749V7.72575ZM10.3457 7.23203C10.3375 7.15103 10.3191 7.08383 10.2904 7.0305C10.2616 6.97823 10.2209 6.93668 10.1681 6.90593C10.1153 6.87518 10.0576 6.8598 9.99508 6.8598C9.89563 6.8598 9.81358 6.8931 9.74901 6.95978C9.68443 7.02645 9.64596 7.1172 9.63366 7.23203H10.3457Z" fill="white"/><path d="M11.5239 6V6.40147H11.0779V6H11.5239ZM11.5239 6.57217V8.24873H11.0779V6.57217H11.5239Z" fill="white"/><path d="M13.2481 7.05975H12.8298C12.8216 7.0023 12.8057 6.95873 12.7821 6.92903C12.736 6.86955 12.6503 6.83985 12.5252 6.83985C12.4462 6.83985 12.3853 6.85418 12.3422 6.88291C12.2992 6.91163 12.2776 6.95213 12.2776 7.0044C12.2776 7.05975 12.3015 7.10025 12.3492 7.1259C12.3969 7.15155 12.5058 7.18178 12.676 7.21665C12.8924 7.26075 13.0483 7.31558 13.1436 7.3812C13.2564 7.45808 13.3128 7.57501 13.3128 7.7319C13.3128 7.91138 13.243 8.05028 13.1036 8.14875C12.9662 8.24618 12.7842 8.29485 12.5576 8.29485C12.2767 8.29485 12.0706 8.22563 11.9393 8.08718C11.8511 7.99283 11.8019 7.86413 11.7916 7.70115H12.2192C12.2274 7.77705 12.2469 7.83443 12.2776 7.87343C12.3351 7.94318 12.4299 7.97805 12.5622 7.97805C12.6544 7.97805 12.7278 7.9593 12.7822 7.92188C12.8365 7.88445 12.8637 7.83398 12.8637 7.77038C12.8637 7.71293 12.8404 7.67018 12.7937 7.64198C12.7471 7.61378 12.6484 7.58228 12.4976 7.54741C12.352 7.51358 12.249 7.48718 12.1885 7.4682C12.1279 7.44923 12.0736 7.42643 12.0254 7.39973C11.9629 7.3638 11.9142 7.31363 11.8793 7.24898C11.8444 7.18433 11.827 7.11263 11.827 7.03365C11.827 6.85935 11.8993 6.72653 12.0439 6.63525C12.1618 6.5604 12.3259 6.52298 12.5361 6.52298C12.814 6.52298 13.0134 6.5937 13.1344 6.73523C13.2 6.8121 13.2379 6.92025 13.2481 7.05975Z" fill="white"/></svg>

<svg class="color-immutable" width="30" height="30" viewBox="0 0 30 30" fill="none" xmlns="http://www.w3.org/2000/svg"><g clip-path="url(#a)"><path d="M30 0H0v30h30V0Z" fill="#2D327D"/><path d="M25.5 3c.825 0 1.5.675 1.5 1.5v21c0 .825-.675 1.5-1.5 1.5h-21c-.825 0-1.5-.675-1.5-1.5v-21C3 3.675 3.675 3 4.5 3h21Zm0-.375h-21A1.877 1.877 0 0 0 2.625 4.5v21c0 1.034.841 1.875 1.875 1.875h21a1.877 1.877 0 0 0 1.875-1.875v-21A1.877 1.877 0 0 0 25.5 2.625Z" fill="#fff"/><path d="M12.352 12.758v11.244h-2.245v-7.36H7.46v-1.63c.549-.016.996-.072 1.342-.17.346-.097.663-.256.95-.476.415-.318.694-.854.838-1.607h1.761ZM23.234 15.565h-2.138c-.2-.866-.692-1.3-1.476-1.3-.831 0-1.42.511-1.77 1.531-.143.415-.258 1.044-.345 1.884.338-.456.698-.784 1.08-.984.382-.2.842-.3 1.38-.3 1.057 0 1.905.374 2.546 1.123.61.707.915 1.594.915 2.66 0 1.267-.41 2.285-1.23 3.054-.739.692-1.626 1.038-2.661 1.038-1.328 0-2.361-.501-3.1-1.503-.738-1.003-1.107-2.401-1.107-4.196 0-1.917.395-3.42 1.185-4.506.763-1.051 1.807-1.577 3.13-1.577 1.245 0 2.199.418 2.86 1.254.38.482.623 1.09.731 1.822Zm-3.807 2.577c-.538 0-.966.225-1.284.677-.287.4-.43.876-.43 1.43 0 .549.145 1.028.438 1.438a1.51 1.51 0 0 0 1.307.684c.539 0 .972-.217 1.3-.653.308-.41.461-.895.461-1.454 0-.548-.138-1.017-.415-1.407-.338-.477-.797-.715-1.377-.715ZM8.095 7.037v1.212h-.313l-.05-.257a.816.816 0 0 1-.672.31c-.343 0-.614-.127-.813-.38-.165-.213-.248-.475-.248-.787 0-.354.108-.643.323-.869a1.03 1.03 0 0 1 .783-.32c.295 0 .536.095.721.286a.84.84 0 0 1 .239.508h-.476a.464.464 0 0 0-.165-.283.509.509 0 0 0-.325-.102.532.532 0 0 0-.462.231c-.095.134-.143.316-.143.544 0 .224.045.401.134.533a.55.55 0 0 0 .486.241.533.533 0 0 0 .38-.14.507.507 0 0 0 .157-.367h-.5v-.36h.944ZM8.903 6v2.249h-.446V6h.446ZM10.775 7.726a.751.751 0 0 1-.128.266c-.148.202-.36.303-.636.303-.25 0-.451-.08-.602-.237a.773.773 0 0 1-.17-.278 1.055 1.055 0 0 1-.062-.363c0-.244.07-.45.21-.616a.76.76 0 0 1 .61-.278c.2 0 .372.062.513.186.102.09.176.2.222.33.046.13.069.295.069.493h-1.17a.65.65 0 0 0 .038.205c.06.146.175.22.345.22.083 0 .15-.019.203-.055a.39.39 0 0 0 .129-.176h.429Zm-.43-.494a.54.54 0 0 0-.055-.202.338.338 0 0 0-.295-.17c-.1 0-.181.033-.246.1a.446.446 0 0 0-.115.272h.712ZM11.524 6v.401h-.446V6h.446Zm0 .572V8.25h-.446V6.572h.446ZM13.248 7.06h-.418a.27.27 0 0 0-.048-.131c-.046-.06-.132-.09-.257-.09a.328.328 0 0 0-.183.044.138.138 0 0 0-.064.121c0 .056.024.096.071.122.048.026.157.056.327.09.216.045.372.1.468.165.112.077.169.194.169.35a.48.48 0 0 1-.21.418c-.137.097-.319.146-.545.146-.281 0-.487-.07-.619-.208a.601.601 0 0 1-.147-.386h.427a.335.335 0 0 0 .059.172c.057.07.152.105.284.105a.382.382 0 0 0 .22-.056.175.175 0 0 0 .082-.152.14.14 0 0 0-.07-.128 1.2 1.2 0 0 0-.296-.095 4.83 4.83 0 0 1-.31-.079.876.876 0 0 1-.163-.068.376.376 0 0 1-.146-.151.446.446 0 0 1-.052-.215c0-.175.072-.307.217-.399.118-.075.282-.112.492-.112.278 0 .477.07.598.212a.55.55 0 0 1 .114.325Z" fill="#fff"/></g><defs><clipPath id="a"><path fill="#fff" d="M0 0h30v30H0z"/></clipPath></defs></svg>
